X: 1
T: Brady's
M: 4/4
L: 1/8
R: reel
K: Ador
de|:fdedB2GB|AFF2ABde|fded BAFA|Beede2de|
fdedB2GB|AFF2ABde|faa2bfaf|dBAG FDD2:|
|:faa2 bgaf|dBB2 AFF2|A3B defd|e2df eBB2|
faa2 bgaf|dBB2 AFF2|A3B defe|dBAG FDD2:|
